svgs/bose_music.svg

<svg width="192" height="192" viewBox="0 0 192 192" fill="none" xmlns="http://www.w3.org/2000/svg">
<path fill-rule="evenodd" clip-rule="evenodd" d="M33.2715 32.9704C31.4268 31.7705 29.0733 31.6767 27.139 32.7261C25.2047 33.7754 24 35.7994 24 38V154C24 157.314 26.6863 160 30 160H162C165.314 160 168 157.314 168 154V123.858V38C168 35.7994 166.795 33.7754 164.861 32.7261C162.927 31.6767 160.573 31.7705 158.729 32.9704L96 73.7716L33.2715 32.9704ZM92.7285 85.9588L36 49.0602V148H156V127.113L92.7285 85.9588ZM156 112.798L107.004 80.9291L156 49.0602V112.798Z" fill="black"/>
</svg>

<svg width="192" height="192" fill="none" xmlns="http://www.w3.org/2000/svg"><path fill-rule="evenodd" clip-rule="evenodd" d="M33.272 32.97A6 6 0 0 0 24 38v116a6 6 0 0 0 6 6h132a6 6 0 0 0 6-6V38a6 6 0 0 0-9.271-5.03L96 73.772 33.272 32.97zM92.728 85.96 36 49.06V148h120v-20.887L92.728 85.959zM156 112.798l-48.996-31.869L156 49.06v63.738z" fill="#000"/></svg>
